icons/arrow-down-16.svg

<svg xmlns="http://www.w3.org/2000/svg" width="16" height="16" viewBox="0 0 16 16"><path d="M13.03 8.22a.75.75 0 010 1.06l-4.25 4.25a.75.75 0 01-1.06 0L3.47 9.28a.751.751 0 01.018-1.042.751.751 0 011.042-.018l2.97 2.97V3.75a.75.75 0 011.5 0v7.44l2.97-2.97a.75.75 0 011.06 0z"/></svg>

<svg xmlns="http://www.w3.org/2000/svg" width="16" height="16" viewBox="0 0 16 16">
  <defs/>
  <path d="M13.03,8.22 C13.322,8.513 13.322,8.987 13.03,9.28 L8.78,13.53 C8.487,13.822 8.013,13.822 7.72,13.53 L3.47,9.28 C3.195,8.984 3.203,8.524 3.488,8.238 C3.774,7.953 4.234,7.945 4.53,8.22 L7.5,11.19 L7.5,3.75 C7.5,3.336 7.836,3 8.25,3 C8.664,3 9,3.336 9,3.75 L9,11.19 L11.97,8.22 C12.263,7.928 12.737,7.928 13.03,8.22 Z"/>
</svg>
